X: 91
T: Dong fang hong (laut Notitzen)
%%abc-version 2.0
%%abcx-abcm2ps-target-version 5.9.1 (29 Sep 2008)
%%abc-creator hum2abc beta
%%abcx-conversion-date 2013/10/02 07:44:27
%%abc-edited-by Helmut Schaffrath
%%humdrum-veritas 406616223
%%humdrum-veritas-data 4067355601
%%continueall 1
%%barnumbers 0
L: 1/8
M: 4/4
K: Bb
DG2B c fd2 [I:setbarnb 1]| 
B G c/ d/ B G> Bg2 | 
c d/ f/ B G/ G/ c d f b | 
g8 | 
dd2f g b g f | 
df2B c> d f3/ g/ | 
d d/ f/ c B/ B< G B/ c/ d/ f | 
G8 | 
DG2B c fd2 | 
B G c/ d/ B G> Bg2 | 
c d/ f/ B G/ G< c d/ f b | 
g8 | 
dd2f g> b g f | 
df2B c> d f3/ g/ | 
d d/ f/ c B/ B< G B/ c/ d/ f | 
G8 | 
G2>B2 c df2 | 
g8 | 
B> G c d f BB2 | 
B cG6 | 
g8 |]  



